lib/svgs/sale.svg

<svg xmlns="http://www.w3.org/2000/svg" viewBox="0 0 20 20">
    <path fill="#000" fill-rule="evenodd" d="M17.3999,13.0178 L16.7599,13.0178 L16.7599,6.0168 C16.7599,4.9168 15.8599,4.0168 14.7599,4.0168 L12.5319,4.0168 C12.3319,3.3608 11.7289,2.8788 11.0079,2.8788 L10.5999,2.8788 L10.5999,2.7738 C10.5999,2.4418 10.3319,2.1728 9.9999,2.1728 C9.6689,2.1728 9.3999,2.4418 9.3999,2.7738 L9.3999,2.8788 L8.9919,2.8788 C8.2709,2.8788 7.6679,3.3608 7.4679,4.0168 L5.2399,4.0168 C4.1399,4.0168 3.2399,4.9168 3.2399,6.0168 L3.2399,13.0178 L2.5999,13.0178 C2.2689,13.0178 1.9999,13.2858 1.9999,13.6168 C1.9999,13.9478 2.2689,14.2168 2.5999,14.2168 L6.8119,14.2168 L5.0229,16.8938 C4.8389,17.1688 4.9129,17.5408 5.1879,17.7258 C5.2909,17.7938 5.4059,17.8258 5.5209,17.8258 C5.7149,17.8258 5.9049,17.7338 6.0209,17.5598 L8.2549,14.2168 L9.3999,14.2168 L9.3999,17.2268 C9.3999,17.5578 9.6689,17.8258 9.9999,17.8258 C10.3319,17.8258 10.5999,17.5578 10.5999,17.2268 L10.5999,14.2168 L11.8779,14.2168 L14.1129,17.5598 C14.2289,17.7338 14.4199,17.8258 14.6129,17.8258 C14.7279,17.8258 14.8429,17.7938 14.9459,17.7258 C15.2209,17.5408 15.2959,17.1688 15.1119,16.8938 L13.3219,14.2168 L17.3999,14.2168 C17.7319,14.2168 17.9999,13.9478 17.9999,13.6168 C17.9999,13.2858 17.7319,13.0178 17.3999,13.0178 L17.3999,13.0178 L17.3999,13.0178 Z M4.4399,6.0168 C4.4399,5.5828 4.8059,5.2168 5.2399,5.2168 L7.4799,5.2168 C7.6919,5.8528 8.2859,6.3158 8.9919,6.3158 L11.0079,6.3158 C11.7139,6.3158 12.3079,5.8528 12.5199,5.2168 L14.7599,5.2168 C15.1939,5.2168 15.5599,5.5828 15.5599,6.0168 L15.5599,12.9778 L4.4399,12.9778 L4.4399,6.0168 L4.4399,6.0168 L4.4399,6.0168 L4.4399,6.0168 Z M8.5919,4.4788 C8.5919,4.2618 8.7749,4.0788 8.9919,4.0788 L11.0079,4.0788 C11.2249,4.0788 11.4079,4.2618 11.4079,4.4788 L11.4079,4.7148 C11.4079,4.9318 11.2249,5.1148 11.0079,5.1148 L8.9919,5.1148 C8.7749,5.1148 8.5919,4.9318 8.5919,4.7148 L8.5919,4.4788 L8.5919,4.4788 L8.5919,4.4788 L8.5919,4.4788 Z M14.0148,7.6064 L10.2878,9.6064 L9.3408,8.2524 C9.1628,7.9984 8.8198,7.9214 8.5518,8.0744 L5.4048,9.8654 C5.1168,10.0294 5.0158,10.3964 5.1808,10.6844 C5.2908,10.8784 5.4938,10.9874 5.7018,10.9874 C5.8028,10.9874 5.9048,10.9614 5.9988,10.9084 L8.6708,9.3884 L9.6108,10.7314 C9.7858,10.9804 10.1188,11.0614 10.3858,10.9164 L14.5818,8.6644 C14.8738,8.5074 14.9838,8.1434 14.8268,7.8514 C14.6708,7.5604 14.3078,7.4494 14.0148,7.6064 L14.0148,7.6064 L14.0148,7.6064 Z"/>
</svg>

<svg xmlns="http://www.w3.org/2000/svg" viewBox="0 0 20 20">
    <path fill="#000" fill-rule="evenodd" d="M17.4 13.018h-.64V6.017c0-1.1-.9-2-2-2h-2.228a1.597 1.597 0 0 0-1.524-1.138H10.6v-.105a.6.6 0 1 0-1.2 0v.105h-.408c-.721 0-1.324.482-1.524 1.138H5.24c-1.1 0-2 .9-2 2v7H2.6a.6.6 0 1 0 0 1.2h4.212l-1.79 2.677a.6.6 0 1 0 .999.666l2.234-3.343H9.4v3.01a.6.6 0 0 0 1.2 0v-3.01h1.278l2.235 3.343a.599.599 0 0 0 .833.166.6.6 0 0 0 .166-.832l-1.79-2.677H17.4a.6.6 0 1 0 0-1.2m-12.96-7c0-.434.366-.8.8-.8h2.24a1.598 1.598 0 0 0 1.512 1.099h2.016c.706 0 1.3-.463 1.512-1.1h2.24c.434 0 .8.367.8.8v6.962H4.44V6.017m4.152-1.538c0-.217.183-.4.4-.4h2.016c.217 0 .4.183.4.4v.236c0 .217-.183.4-.4.4H8.992a.405.405 0 0 1-.4-.4v-.236m5.423 3.127l-3.727 2-.947-1.354a.601.601 0 0 0-.79-.178L5.406 9.865a.6.6 0 1 0 .594 1.043l2.672-1.52.94 1.343c.175.25.508.33.775.185l4.196-2.252a.6.6 0 0 0-.567-1.058"/>
</svg>
